src/assets/filled/Discover1.svg

<?xml version="1.0" encoding="UTF-8"?>
<svg width="24" height="24" viewBox="0 0 24 24" xmlns="http://www.w3.org/2000/svg">
 <path d="m12 2c-5.51 0-10 4.49-10 10s4.49 10 10 10 10-4.49 10-10-4.49-10-10-10zm-1.5 14.13c-1.45 0-2.62-1.18-2.62-2.62 0-3.1 2.52-5.62 5.62-5.62 1.45 0 2.62 1.18 2.62 2.62 0 3.09-2.52 5.62-5.62 5.62z"/>
</svg>

<svg width="24" height="24" viewBox="0 0 24 24"  xmlns="http://www.w3.org/2000/svg">
<path d="M12 2C6.49 2 2 6.49 2 12C2 17.51 6.49 22 12 22C17.51 22 22 17.51 22 12C22 6.49 17.51 2 12 2ZM10.5 16.13C9.05 16.13 7.88 14.95 7.88 13.51C7.88 10.41 10.4 7.89 13.5 7.89C14.95 7.89 16.12 9.07 16.12 10.51C16.12 13.6 13.6 16.13 10.5 16.13Z" />
</svg>
